packages/katcn/src/icons/svg/brokenFile-solid.svg

<svg width="24" height="25" viewBox="0 0 24 25" fill="none" xmlns="http://www.w3.org/2000/svg">
<path d="M20 9.92445V13.1972L18.8718 12.2054C18.4615 11.9079 17.8462 11.9079 17.5385 12.2054L15.1795 14.2881L12.7179 12.1063C12.3077 11.8087 11.6923 11.8087 11.3846 12.1063L9.02564 14.1889L6.5641 12.1063C6.15385 11.8087 5.53846 11.8087 5.23077 12.1063L4 13.1972V4.96577C4 3.47817 5.23077 2.28809 6.66667 2.28809H12.3077C13.2308 2.28809 14.1538 2.68478 14.7692 3.27982L18.8718 7.34594C19.5897 8.04015 20 8.93271 20 9.92445Z" fill="black"/>
<path d="M18.1538 14.2881L20 15.8881V19.5881C20 21.0881 18.7692 22.2881 17.3333 22.2881H6.66667C5.23077 22.2881 4 21.0881 4 19.5881V15.8881L5.84615 14.2881L8.20513 16.3881C8.61538 16.7881 9.23077 16.7881 9.53846 16.3881L12 14.2881L14.359 16.3881C14.7692 16.7881 15.3846 16.7881 15.6923 16.3881L18.1538 14.2881Z" fill="black"/>
</svg>

<svg xmlns="http://www.w3.org/2000/svg" fill="none" viewBox="0 0 24 25"><path fill="#000" d="M20 9.924v3.273l-1.128-.992c-.41-.297-1.026-.297-1.334 0l-2.358 2.083-2.462-2.182c-.41-.297-1.026-.297-1.333 0l-2.36 2.083-2.46-2.083c-.411-.297-1.027-.297-1.334 0L4 13.197V4.966a2.69 2.69 0 0 1 2.667-2.678h5.64c.924 0 1.847.397 2.462.992l4.103 4.066C19.59 8.04 20 8.933 20 9.924m-1.846 4.364 1.846 1.6v3.7c0 1.5-1.23 2.7-2.667 2.7H6.667c-1.436 0-2.667-1.2-2.667-2.7v-3.7l1.846-1.6 2.36 2.1c.41.4 1.025.4 1.332 0l2.462-2.1 2.359 2.1c.41.4 1.026.4 1.333 0z"/></svg>
